flaticon/essential/switch.svg

<svg xmlns="http://www.w3.org/2000/svg" width="32" height="32" viewBox="0 0 24 24">
    <path d="M 21.199219 9.199219 L 10.441406 9.199219 C 9.472656 7.527344 7.667969 6.398438 5.601562 6.398438 C 2.511719 6.398438 0 8.910156 0 12 C 0 15.089844 2.511719 17.601562 5.601562 17.601562 C 7.667969 17.601562 9.472656 16.472656 10.441406 14.800781 L 21.199219 14.800781 C 22.742188 14.800781 24 13.542969 24 12 C 24 10.457031 22.742188 9.199219 21.199219 9.199219 Z M 5.601562 16.800781 C 2.953125 16.800781 0.800781 14.648438 0.800781 12 C 0.800781 9.351562 2.953125 7.199219 5.601562 7.199219 C 7.464844 7.199219 9.082031 8.269531 9.875 9.828125 C 9.945312 9.96875 10.011719 10.113281 10.066406 10.257812 C 10.085938 10.304688 10.101562 10.351562 10.121094 10.398438 C 10.160156 10.515625 10.199219 10.636719 10.230469 10.753906 C 10.246094 10.816406 10.261719 10.875 10.277344 10.933594 C 10.304688 11.050781 10.324219 11.171875 10.339844 11.292969 C 10.351562 11.347656 10.363281 11.40625 10.367188 11.464844 C 10.386719 11.640625 10.398438 11.820312 10.398438 12 C 10.398438 12.179688 10.386719 12.359375 10.367188 12.535156 C 10.363281 12.59375 10.351562 12.652344 10.339844 12.707031 C 10.324219 12.828125 10.304688 12.949219 10.277344 13.066406 C 10.261719 13.125 10.246094 13.183594 10.230469 13.246094 C 10.199219 13.363281 10.160156 13.484375 10.121094 13.601562 C 10.101562 13.648438 10.085938 13.695312 10.066406 13.742188 C 10.011719 13.886719 9.945312 14.03125 9.875 14.171875 C 9.082031 15.730469 7.464844 16.800781 5.601562 16.800781 Z M 21.199219 14 L 10.828125 14 C 10.851562 13.945312 10.863281 13.890625 10.882812 13.839844 C 10.914062 13.753906 10.941406 13.671875 10.96875 13.589844 C 10.996094 13.488281 11.019531 13.386719 11.042969 13.285156 C 11.0625 13.21875 11.078125 13.148438 11.09375 13.078125 C 11.117188 12.957031 11.132812 12.832031 11.148438 12.710938 C 11.15625 12.65625 11.167969 12.601562 11.171875 12.546875 C 11.191406 12.367188 11.199219 12.183594 11.199219 12 C 11.199219 11.816406 11.191406 11.632812 11.171875 11.453125 C 11.167969 11.398438 11.15625 11.34375 11.148438 11.289062 C 11.132812 11.167969 11.117188 11.042969 11.09375 10.921875 C 11.078125 10.851562 11.0625 10.78125 11.046875 10.714844 C 11.019531 10.613281 10.996094 10.511719 10.96875 10.410156 C 10.941406 10.328125 10.914062 10.246094 10.882812 10.164062 C 10.863281 10.109375 10.851562 10.054688 10.828125 10 L 21.199219 10 C 22.304688 10 23.199219 10.898438 23.199219 12 C 23.199219 13.101562 22.304688 14 21.199219 14 Z M 21.199219 14"/>
    <path d="M14 12C14 12.222656 13.820312 12.398438 13.601562 12.398438 13.378906 12.398438 13.199219 12.222656 13.199219 12 13.199219 11.777344 13.378906 11.601562 13.601562 11.601562 13.820312 11.601562 14 11.777344 14 12zM12.800781 10.800781C12.800781 11.019531 12.621094 11.199219 12.398438 11.199219 12.179688 11.199219 12 11.019531 12 10.800781 12 10.578125 12.179688 10.398438 12.398438 10.398438 12.621094 10.398438 12.800781 10.578125 12.800781 10.800781zM15.199219 10.800781C15.199219 11.019531 15.019531 11.199219 14.800781 11.199219 14.578125 11.199219 14.398438 11.019531 14.398438 10.800781 14.398438 10.578125 14.578125 10.398438 14.800781 10.398438 15.019531 10.398438 15.199219 10.578125 15.199219 10.800781zM12.800781 13.199219C12.800781 13.421875 12.621094 13.601562 12.398438 13.601562 12.179688 13.601562 12 13.421875 12 13.199219 12 12.980469 12.179688 12.800781 12.398438 12.800781 12.621094 12.800781 12.800781 12.980469 12.800781 13.199219zM15.199219 13.199219C15.199219 13.421875 15.019531 13.601562 14.800781 13.601562 14.578125 13.601562 14.398438 13.421875 14.398438 13.199219 14.398438 12.980469 14.578125 12.800781 14.800781 12.800781 15.019531 12.800781 15.199219 12.980469 15.199219 13.199219zM16.398438 12C16.398438 12.222656 16.222656 12.398438 16 12.398438 15.777344 12.398438 15.601562 12.222656 15.601562 12 15.601562 11.777344 15.777344 11.601562 16 11.601562 16.222656 11.601562 16.398438 11.777344 16.398438 12zM18.800781 12C18.800781 12.222656 18.621094 12.398438 18.398438 12.398438 18.179688 12.398438 18 12.222656 18 12 18 11.777344 18.179688 11.601562 18.398438 11.601562 18.621094 11.601562 18.800781 11.777344 18.800781 12zM17.601562 10.800781C17.601562 11.019531 17.421875 11.199219 17.199219 11.199219 16.980469 11.199219 16.800781 11.019531 16.800781 10.800781 16.800781 10.578125 16.980469 10.398438 17.199219 10.398438 17.421875 10.398438 17.601562 10.578125 17.601562 10.800781zM20 10.800781C20 11.019531 19.820312 11.199219 19.601562 11.199219 19.378906 11.199219 19.199219 11.019531 19.199219 10.800781 19.199219 10.578125 19.378906 10.398438 19.601562 10.398438 19.820312 10.398438 20 10.578125 20 10.800781zM17.601562 13.199219C17.601562 13.421875 17.421875 13.601562 17.199219 13.601562 16.980469 13.601562 16.800781 13.421875 16.800781 13.199219 16.800781 12.980469 16.980469 12.800781 17.199219 12.800781 17.421875 12.800781 17.601562 12.980469 17.601562 13.199219zM20 13.199219C20 13.421875 19.820312 13.601562 19.601562 13.601562 19.378906 13.601562 19.199219 13.421875 19.199219 13.199219 19.199219 12.980469 19.378906 12.800781 19.601562 12.800781 19.820312 12.800781 20 12.980469 20 13.199219zM21.199219 12C21.199219 12.222656 21.019531 12.398438 20.800781 12.398438 20.578125 12.398438 20.398438 12.222656 20.398438 12 20.398438 11.777344 20.578125 11.601562 20.800781 11.601562 21.019531 11.601562 21.199219 11.777344 21.199219 12zM22.398438 10.800781C22.398438 11.019531 22.222656 11.199219 22 11.199219 21.777344 11.199219 21.601562 11.019531 21.601562 10.800781 21.601562 10.578125 21.777344 10.398438 22 10.398438 22.222656 10.398438 22.398438 10.578125 22.398438 10.800781zM22.398438 13.199219C22.398438 13.421875 22.222656 13.601562 22 13.601562 21.777344 13.601562 21.601562 13.421875 21.601562 13.199219 21.601562 12.980469 21.777344 12.800781 22 12.800781 22.222656 12.800781 22.398438 12.980469 22.398438 13.199219zM22.398438 13.199219"/>
</svg>

<svg xmlns="http://www.w3.org/2000/svg" width="32" height="32" viewBox="0 0 24 24">
    <path d="M21.2 9.2H10.44a5.593 5.593 0 0 0-4.84-2.802A5.606 5.606 0 0 0 0 12a5.606 5.606 0 0 0 5.602 5.602 5.593 5.593 0 0 0 4.84-2.801h10.757C22.742 14.8 24 13.543 24 12c0-1.543-1.258-2.8-2.8-2.8zM5.601 16.8A4.805 4.805 0 0 1 .8 12c0-2.648 2.152-4.8 4.8-4.8a4.797 4.797 0 0 1 4.465 3.058c.02.047.036.094.055.14a6.176 6.176 0 0 1 .156.536c.028.117.047.238.063.359.012.055.023.113.027.172.02.176.031.355.031.535 0 .18-.011.36-.03.535a1.214 1.214 0 0 1-.028.172 3.633 3.633 0 0 1-.063.36l-.047.18c-.03.116-.07.237-.109.355-.02.046-.035.093-.055.14a4.797 4.797 0 0 1-4.465 3.059zM21.199 14H10.83c.023-.055.034-.11.054-.16a9.61 9.61 0 0 0 .086-.25c.027-.102.05-.203.074-.305.02-.066.035-.137.05-.207.024-.121.04-.246.055-.367.008-.055.02-.11.024-.164.02-.18.027-.363.027-.547 0-.184-.008-.367-.027-.547-.004-.055-.016-.11-.024-.164-.015-.121-.03-.246-.054-.367l-.047-.207c-.027-.102-.05-.203-.078-.305a6.143 6.143 0 0 0-.086-.246c-.02-.055-.031-.11-.055-.164H21.2c1.106 0 2 .898 2 2 0 1.102-.894 2-2 2zm0 0"/>
    <path d="M14 12c0 .223-.18.398-.398.398a.398.398 0 1 1 0-.796c.218 0 .398.175.398.398zm0 0M12.8 10.8a.401.401 0 1 1-.801-.004.401.401 0 0 1 .802.005zm0 0M15.2 10.8a.4.4 0 1 1-.801-.003.4.4 0 0 1 .8.004zm0 0M12.8 13.2a.401.401 0 1 1 0 0zm0 0M15.2 13.2a.401.401 0 1 1-.803.002.401.401 0 0 1 .802-.003zm0 0M16.398 12a.395.395 0 0 1-.398.398.395.395 0 0 1-.398-.398c0-.223.175-.398.398-.398.223 0 .398.175.398.398zm0 0M18.8 12c0 .223-.179.398-.402.398a.398.398 0 1 1 0-.796c.223 0 .403.175.403.398zm0 0M17.602 10.8a.401.401 0 1 1-.802-.004.401.401 0 0 1 .802.005zm0 0M20 10.8a.4.4 0 1 1-.8-.003.4.4 0 0 1 .8.004zm0 0M17.602 13.2a.401.401 0 1 1 0 0zm0 0M20 13.2a.401.401 0 1 1-.802.002.401.401 0 0 1 .802-.003zm0 0M21.2 12c0 .223-.18.398-.4.398a.398.398 0 1 1 0-.796c.22 0 .4.175.4.398zm0 0M22.398 10.8a.398.398 0 1 1-.796 0 .398.398 0 1 1 .796 0zm0 0M22.398 13.2a.398.398 0 1 1-.796 0 .398.398 0 1 1 .796 0zm0 0"/>
</svg>
